**kern	**kern
*staff1	*staff1
*solo1[solo1a]	*solo1[solo1a]
*solo2[solo2a]	*solo2[solo2a]
*solo3[solo3a]	*solo3[solo3a]
*solo4[solo4a]	*solo4[solo4a]
*solo5[solo5a]	*solo5[solo5a]
*clefG2	*clefG2
*k[]	*k[]
*F:	*F:
*M4/4	*M4/4
*>solo1a	*>solo1a
{8c/	.
=1	=1
4f/	1F:dom
8g/L	.
8g#/J	.
4a/	.
8a#/L	.
8b/J	.
=2||	=2||
8cc\L	1F:dom
8a\	.
8b-\	.
16cc\L	.
16b-\JJ	.
8a/L	.
8f/	.
8d/	.
8c/J	.
=3	=3
4.f/	1F:dom
[8f/	.
4f/]	.
[4f/	.
=4	=4
8f/L]	1F:dom
[8f/J	.
4f/]	.
2f/}	.
=5	=5
2r	1B-:dom
{8cc\L	.
8b-\	.
8cc\	.
8b-\J	.
=6	=6
24a-/LL	1B-:dom
24b-/	.
24a-/JJ	.
8f/L	.
8.g/	.
[16f/Jk	.
8f/L]	.
[8e-/	.
8e-/]	.
8c/J	.
=7	=7
12B-/L	1F:dom
12c/	.
12B-/J	.
8A/L	.
8B-/J	.
8c/L	.
8B-/	.
8A/	.
8G/J	.
=8	=8
8G-/L	1D:dom
8A/	.
8c/	.
[8b-/J	.
4b-\]	.
12f#/L	.
12d/	.
12B-/J	.
=9	=9
8a/L	1G-:min
8g/J}	.
4r	.
2r	.
=10	=10
8r	1C:dom
{8e/	.
16g/LL	.
16a/	.
16b-/	.
16cc/JJ	.
16ff\LL	.
16dd\	.
16ee-\	.
16een\JJ	.
16cc\LL	.
16cc#\	.
16dd\	.
16ccn\JJ	.
=11	=11
16b-/LL	1F:dom
16a/	.
16g/	.
16f/JJ	.
16e/LL	.
16g/	.
16b-/	.
16dd/JJ	.
4cc\}	.
4r	.
=12	=12
2r	1C:dom
4r	.
8r	.
*>solo2a	*>solo2a
{[8c/	.
=13	=13
8c/L]	1F:dom
8f/J	.
8r	.
[8cc\	.
2cc\_	.
=14||	=14||
4cc\]	1F:maj
12b-\L	.
12a\	.
12b-\J	.
12a/L	.
12b-/	.
12a/J	.
12b-\L	.
12a\	.
12b-\J	.
=15	=15
12a/L	1F:maj
12b-/	.
12a/J	.
8b-\L	.
8cc\J}	.
2r	.
=16	=16
8r	1F:dom
{16f/LL	.
16f/J	.
8f/	.
[8b/J	.
8b\L]	.
[8b-\	.
8b-\]	.
[8a-\J	.
=17	=17
24a-/LL]1B-:dom	.
24b-/	.
24a-/JJ	.
8f/L	.
8g/	.
[8f/J	.
8f/L]	.
8e-/	.
8c/	.
8B/J	.
=18	=18
4B-/}	1B-:dom
4r	.
2r	.
=19	=19
8r	1F:dom
{8e/	.
16f/LL	.
16g/	.
16a/	.
16cc/JJ	.
24ee\LL	.
24ff\	.
24ff#\JJ	.
[8gg\L	.
8gg\]	.
8ffn\J	.
=20	=20
8ee/L	2A:min
8cc/	.
8a/	.
8e/J	.
8e-\L	2D:dom
[8b\	.
8b\]	.
8b-\J}	.
=21	=21
8r	1G:min
{32d#/LLL	.
32e/	.
32f#/	.
32g/JJJ	.
24a\LL	.
24b-\	.
24cc\	.
24dd\	.
24ee\	.
[24ff\JJ	.
4ff\_	.
8ff\_	.
32ff\LLL]	.
32ee\	.
32dd\	.
32cc\JJJ	.
=22	=22
8b-/L	1C:dom
8a/	.
8g/	.
8f/J	.
8e/L	.
8G/	.
8B-/	.
8d-/J	.
=23	=23
8c/L	1F:dom
8B-/J	.
16A/LL	.
16c/	.
16e/	.
16g/JJ	.
8f/L	.
[8c/J	.
4c/]}	.
=24	=24
1r	1C:dom
=25	=25
*>solo3a	*>solo3a
{8.a/L	1F:dom
16cc/Jk	.
16cc\LL	.
16dd\J	.
[8a\J	.
8a/L]	.
[8f/	.
8f/]	.
[8a/J	.
=26||	=26||
8a/L]	1B-:dom
8cc/J	.
16cc\LL	.
16dd\J	.
8a-\J}	.
4r	.
8r	.
{8c/	.
=27	=27
8a/L	1F:dom
[8cc/J	.
16cc\LL]	.
16dd\J	.
[8a\J	.
8a/L]	.
8f/	.
8g/	.
8f/J	.
=28	=28
8a/L	1F:dom
8cc/J	.
16dd\LL	.
16cc\J	.
8ee-\J}	.
4r	.
8r	.
{[8ff\	.
=29	=29
4ff\]	1B-:dom
8a-/L	.
8f/J	.
8g/L	.
8f/	.
8d/	.
8B-/J	.
=30	=30
4f/	1B-:dom
8g/L	.
8a-/J}	.
4r	.
{8ee\L	.
8dd\J	.
=31	=31
8cc\L	1F:maj
8b-\J	.
24a/LL	.
24b-/	.
24a/JJ	.
8g/	.
8f/L	.
8e-/	.
8d/	.
8d-/J	.
=32	=32
8c/L	2A-:min
8B-/	.
8A/	.
8G/J	.
8G-/L	2D:dom
8A/	.
8c/	.
8e-/J	.
=33	=33
8d/L	1G:min
8B-/	.
8G/	.
8A/J	.
8c/L	.
[8B-/J	.
4B-/]}	.
=34	=34
2r	1C:dom
{8b\L	.
[8b-\J	.
4b-\_	.
=35	=35
4b-\]	1F:dom
8bn\L	.
[8b-\J	.
8b-/L]	.
[8a-/J	.
24a-/LL]	.
24b-/	.
24a-/JJ	.
8f/	.
=36	=36
4g/}	1C:dom
4r	.
4r	.
8r	.
*>solo4a	*>solo4a
{8c/	.
=37	=37
4f/	1F:dom
8cc\L	.
8b-\J	.
8a/L	.
8f/	.
8d/	.
8c/J	.
=38||	=38||
8f/L	1B-:dom
8cc/	.
8b-/	.
[8a-/J	.
24a-/LL]	.
24b-/	.
24a-/JJ	.
8f/L	.
8d/	.
8c/J	.
=39	=39
4f/	1F:dom
8cc\L	.
8b-\J	.
8a/L	.
8f/	.
8d/	.
8c/J	.
=40	=40
24g/LL	1F:dom
24a-/	.
24g/JJ	.
8f/L	.
8e-/	.
8f/J}	.
8r	.
{8cc\L	.
8b-\	.
[8a-\J	.
=41	=41
24a-/LL]1B-:dom	.
24b-/	.
24a-/JJ	.
8f/L	.
8g/	.
8f/J	.
8r	.
[8B-/	.
4B-/]}	.
=42	=42
1r	1B-:dom
=43	=43
{12ee\L	1F:dom
12ff\	.
12ff#\J	.
12gg\L	.
12ff#\	.
12ffn\J	.
8ee\L	.
8cc\J}	.
4r	.
=44	=44
8r	1A-:min
{16A-/LL	.
16B/JJ	.
16e-/LL	.
16g-/	.
16b-/	.
16dd-/JJ	.
4a-/}	.
4r	.
=45	=45
8r	1G:min
{8e/	.
12g\L	.
12b-\	.
12dd\J	.
8gg\L	.
8gg-\	.
8ff\	.
8ee\J	.
=46	=46
8dd\L	1C:dom
8dd-\	.
8cc\	.
8a\J	.
8b-\L	.
16cc\L	.
16b-\J	.
8a\	.
8f\J	.
=47	=47
8g/L	1F:dom
8f/	.
8d-/	.
8B/J	.
8c/L	.
[8A/J	.
4A/]}	.
=48	=48
2r	1C:dom
8r	.
*>solo5a	*>solo5a
{8c/L	.
8f/	.
[8b/J	.
=49	=49
8b\L]	1F:dom
[8b-\J	.
4b-\]	.
8bn\L	.
8b-\	.
8bn\	.
8b-\J	.
=50||	=50||
8a-/L	1F:dom
16b-/L	.
16a-/J	.
8f/	.
8g/J	.
8f/L	.
8e-/	.
8d/	.
8d-/J	.
=51	=51
8c/L	1F:dom
8B-/J	.
16A/LL	.
16c/	.
16e-/	.
16g/JJ	.
8dd\L	.
8dd-\	.
8cc\	.
8b\J	.
=52	=52
8b-/L	2C:min
8g/	.
8e-/	.
8c/J	.
24a-/LL	2F:dom:9+
24b-/	.
24a-/JJ	.
8g-/L	.
8B/	.
8A/J	.
=53	=53
8B-/L	1B-:dom
8e-/	.
8c/	.
8c#/J	.
2d/}	.
=54	=54
2r	1B-:dom
{12ee\L	.
12ff\	.
12ff#\J	.
12gg\L	.
12ff#\	.
12ffn\J	.
=55	=55
8ee\L	1F:dom
8cc\J}	.
4r	.
2r	.
=56	=56
4r	1F:dom
8r	.
{[8ee\	.
4ee\]	.
8cc#\L	.
8dd\J	.
=57	=57
[4ff\	1G:min
12ff\L]	.
12dd\	.
12cc\J	.
8b-/L	.
8a/	.
8g/	.
8f/J	.
=58	=58
8e/L	1C:dom
8G/	.
8B-/	.
8d-/J	.
8c/L	.
8B-/J	.
16d-/LL	.
16e/	.
16f/	.
16g/JJ	.
=59	=59
8f/L	1F:dom
8g/	.
8a/	.
8b-/J	.
8cc\L	.
8b-\	.
8a\	.
8cc\J	.
=60	=60
8g/L	2G:min
8a/	.
8b-/	.
8dd/J	.
8a-\L	2C:dom
8bn\	.
8ee\	.
8dd\J	.
=61	=61
8cc/L	1F:dom
[8a/J	.
4a/]}	.
2r	.
==	==
*-	*-
